client/src/client/images/remove-column.svg

<?xml version="1.0" encoding="UTF-8"?>
<svg version="1.1" viewBox="0 0 16 16" xmlns="http://www.w3.org/2000/svg" xmlns:cc="http://creativecommons.org/ns#" xmlns:dc="http://purl.org/dc/elements/1.1/" xmlns:rdf="http://www.w3.org/1999/02/22-rdf-syntax-ns#" xmlns:xlink="http://www.w3.org/1999/xlink">
<defs>
<mask id="a" maskUnits="userSpaceOnUse">
<path d="m-1-1h18v18h-18z" fill="#fff"/>
<circle transform="scale(-1)" cx="-8" cy="-8" r="4" style="paint-order:stroke markers fill"/>
</mask>
</defs>
<metadata>
<rdf:RDF>
<cc:Work rdf:about="">
<dc:format>image/svg+xml</dc:format>
<dc:type rdf:resource="http://purl.org/dc/dcmitype/StillImage"/>
<dc:title/>
</cc:Work>
</rdf:RDF>
</metadata>
<g>
<g mask="url(#a)">
<path transform="rotate(180,8,8)" d="m0 0v16h16v-16zm1 1h4v4h-4zm5 0h4v4h-4zm5 0h4v4h-4zm-10 5h4v4h-4zm5 0h4v4h-4zm5 0h4v4h-4zm-10 5h4v4h-4zm5 0h4v4h-4zm5 0h4v4h-4z" color="#000000" color-rendering="auto" dominant-baseline="auto" fill="#aabcc8" fill-opacity=".49727" image-rendering="auto" mask="none" shape-rendering="auto" solid-color="#000000" stop-color="#000000" style="font-feature-settings:normal;font-variant-alternates:normal;font-variant-caps:normal;font-variant-east-asian:normal;font-variant-ligatures:normal;font-variant-numeric:normal;font-variant-position:normal;font-variation-settings:normal;inline-size:0;isolation:auto;mix-blend-mode:normal;paint-order:stroke fill markers;shape-margin:0;shape-padding:0;text-decoration-color:#000000;text-decoration-line:none;text-decoration-style:solid;text-indent:0;text-orientation:mixed;text-transform:none;white-space:normal"/>
<path d="m16 16v-16h-16v16zm-1-1h-14v-14h14z" color="#000000" color-rendering="auto" dominant-baseline="auto" fill="#aabcc8" image-rendering="auto" shape-rendering="auto" solid-color="#000000" stop-color="#000000" style="font-feature-settings:normal;font-variant-alternates:normal;font-variant-caps:normal;font-variant-east-asian:normal;font-variant-ligatures:normal;font-variant-numeric:normal;font-variant-position:normal;font-variation-settings:normal;inline-size:0;isolation:auto;mix-blend-mode:normal;paint-order:stroke fill markers;shape-margin:0;shape-padding:0;text-decoration-color:#000000;text-decoration-line:none;text-decoration-style:solid;text-indent:0;text-orientation:mixed;text-transform:none;white-space:normal"/>
<path transform="rotate(180 8 -9.5367e-7)" x="6.0327315" y="-14.967267" width="3.9345367" height="13.93453" d="m6.0327-14.967h3.9345v13.935h-3.9345z" fill="#ebc5c8" mask="none" stroke="#ff8699" stroke-width="2.0655" style="paint-order:stroke fill markers"/>
</g>
</g>
<g>
<path d="m6.7626 10.298 1.2374-1.2374 1.2374 1.2374 1.0607-1.0607-1.2374-1.2374 1.2374-1.2374-1.0607-1.0607-1.2374 1.2374-1.2374-1.2374-1.0607 1.0607 1.2374 1.2374-1.2374 1.2374z" fill="#ff3353" style="paint-order:stroke markers fill"/>
</g>
</svg>

<svg xmlns="http://www.w3.org/2000/svg" width="16" height="16"><defs><linearGradient id="a"><stop offset="0" stop-color="#51b5e3" stop-opacity=".247"/><stop offset="1" stop-color="#51b5e3"/></linearGradient><mask maskUnits="userSpaceOnUse" id="b"><path d="M-1-1h18v18H-1z" fill="#fff"/><circle cx="-8" cy="-8" r="4" transform="scale(-1)" stroke-width="0" paint-order="stroke markers fill"/></mask></defs><g mask="url(#b)" paint-order="stroke fill markers"><path style="line-height:normal;font-variant-ligatures:normal;font-variant-position:normal;font-variant-caps:normal;font-variant-numeric:normal;font-variant-alternates:normal;font-variant-east-asian:normal;font-feature-settings:normal;font-variation-settings:normal;text-indent:0;text-align:start;text-decoration-line:none;text-decoration-style:solid;text-decoration-color:#000;text-transform:none;text-orientation:mixed;white-space:normal;shape-padding:0;shape-margin:0;inline-size:0;isolation:auto;mix-blend-mode:normal;solid-color:#000;solid-opacity:1" d="M16 16V0H0v16zm-1-1h-4v-4h4zm-5 0H6v-4h4zm-5 0H1v-4h4zm10-5h-4V6h4zm-5 0H6V6h4zm-5 0H1V6h4zm10-5h-4V1h4zm-5 0H6V1h4zM5 5H1V1h4z" color="#000" font-weight="400" font-family="sans-serif" overflow="visible" fill="#aabcc8" fill-opacity=".497"/><path style="line-height:normal;font-variant-ligatures:normal;font-variant-position:normal;font-variant-caps:normal;font-variant-numeric:normal;font-variant-alternates:normal;font-variant-east-asian:normal;font-feature-settings:normal;font-variation-settings:normal;text-indent:0;text-align:start;text-decoration-line:none;text-decoration-style:solid;text-decoration-color:#000;text-transform:none;text-orientation:mixed;white-space:normal;shape-padding:0;shape-margin:0;inline-size:0;isolation:auto;mix-blend-mode:normal;solid-color:#000;solid-opacity:1" d="M16 16V0H0v16zm-1-1H1V1h14z" color="#000" font-weight="400" font-family="sans-serif" overflow="visible" fill="#aabcc8"/><path d="M9.967 14.967H6.033V1.033h3.934z" fill="#ebc5c8" stroke="#ff8699" stroke-width="2.065"/></g><path d="M6.763 10.298L8 9.061l1.237 1.237 1.061-1.06L9.061 8l1.237-1.237-1.06-1.061L8 6.939 6.763 5.702l-1.061 1.06L6.939 8 5.702 9.237z" fill="#ff3353" paint-order="stroke markers fill"/></svg>
